!!!COA:	Josquin des Prez
!!!CDT:	~1450-1521/08/27
!!!COM2: La Rue, Pierre de
!!!CDT2: ~1452///-1518/11/20/
!!!OPR:	Missa Cum iocunditate
!!!ONM:	5
!!!OTL:	Agnus Dei
!!!AGN:	Mass; Agnus Dei
!!!SCT:	NJE 3.4
!!!SCA:	New Josquin Edition 3.4
!!!voices: 4
!!!voices-OPR: 4(-5)
**kern	**kern	**kern	**kern
*staff4	*staff3	*staff2	*staff1
*Ivox	*Ivox	*Ivox	*Ivox
*I"Bassus	*I"Tenor	*I"Altus	*I"Superius
*I'B	*I'T	*I'A	*I'S
*>[A,B,A]	*>[A,B,A]	*>[A,B,A]	*>[A,B,A]
*>Agnus1[A]	*>Agnus1[A]	*>Agnus1[A]	*>Agnus1[A]
*>Agnus2[B]	*>Agnus2[B]	*>Agnus2[B]	*>Agnus2[B]
*>Agnus3[C]	*>Agnus3[C]	*>Agnus3[C]	*>Agnus3[C]
*clefF4	*clefGv2	*clefGv2	*clefG2
*k[]	*k[]	*k[]	*k[]
*>A	*>A	*>A	*>A
*M3/1	*M3/1	*M3/1	*M3/1
*met(O)	*met(O)	*met(O)	*met(O)
=1-	=1-	=1-	=1-
!!section: Agnus Dei I
!!!OMD: Agnus Dei I
[0.GG	[0.G	0d	0g
.	.	1B	[1b
=2	=2	=2	=2
1GG]	1G]	1d	1b]
0C	0E	0e	0cc
=3	=3	=3	=3
1GG	1G	1d	2b\
.	.	.	1g
0D	0A	0d	.
.	.	.	4f#i/
.	.	.	4e/
.	.	.	1f#i
=4	=4	=4	=4
2GG/	1G	0.r	1g
1C	.	.	.
.	2r	.	2a/
2BB/	1G	.	2b\
1AA	.	.	1cc
.	2E/	.	.
=5	=5	=5	=5
0GG	0G	2r	1b
.	.	1g	.
.	.	.	2r
.	.	2g\	1dd
1D	[1A	2f\	.
.	.	2d\	2dd\
=6	=6	=6	=6
1r	1A]	2e\	2cc\
.	.	2f\	2a/
2r	1G	1g	0b
1G	.	.	.
.	1r	[1d	.
2G\	.	.	.
=7	=7	=7	=7
2F\	1r	1d]	1a
2D\	.	.	.
0E	2G/	2r	1r
.	2E/	1g	.
.	1G	.	1r
.	.	2g\	.
=8	=8	=8	=8
1D	0A	2f\	3%2ddV
.	.	2d\	.
.	.	.	3dd\Z
1r	.	1e	3cc\V
.	.	.	3a/
.	.	.	3cc\Z
3%2GV	1G	2r	3dd\V
.	.	.	3%2bZ
.	.	[2d\	.
3G\Z	.	.	.
=9	=9	=9	=9
3F\V	2r	2d\]	3%2aV
3D\	.	.	.
.	1d	2d\	.
3F\Z	.	.	3a/Z
3G\V	.	1G	3%2gV
3%2EZ	.	.	.
.	2B\	.	.
.	.	.	3e/Z
1D	1d	1A	3%2fV
.	.	.	6e/
.	.	.	6d/Z
=10	=10	=10	=10
2r	[0.e	2r	1c
2A\	.	2c\	.
2G\	.	2B\	2r
2A\	.	2c\	2cc\
2E\	.	2G/	2b\
2A\	.	2c\	2cc\
=11	=11	=11	=11
2G\	0e]	2B\	2g/
2A\	.	2c\	2cc\
2E\	.	2G/	2b\
2A\	.	1A	2cc\
2D\	1d	.	2a/
[2G\	.	2G/	[2b\
=12	=12	=12	=12
2G\]	0.d	1A	4b\]
.	.	.	4a/
2F\	.	.	1a
1G	.	1B	.
.	.	.	2g/
1D	.	2A/	2a/
.	.	2d\	2f/
=13	=13	=13	=13
2r	0.r	2e\	2g/
1D	.	1f	2a/
.	.	.	2d/
2F\	.	2f\	2a/
2G\	.	2e\	2b\
2A\	.	2c\	2cc\
=14	=14	=14	=14
2D\	2d\	2f\	2a/
2.G\	2B\	1g	2.b\
.	1d	.	.
4F\	.	.	4a/
2D\	.	2.a\	1dd
1A	1e	.	.
.	.	4g\	.
.	.	2e\	2cc#i\
=15	=15	=15	=15
0D	0.d	1f	1dd
.	.	4f\	2r
.	.	4e\	.
.	.	4d\	1dd
.	.	4c\	.
1r	.	1B	.
.	.	.	2b\
=16	=16	=16	=16
2r	2r	2r	2cc\
1G	2d\	1B	2b\
.	1B	.	2g/
2G\	.	2G/	1dd
2F\	1d	2A/	.
2D\	.	2F/	2b\
=17	=17	=17	=17
2C/	0e	2G/	2cc\
1G	.	1B	2b\
.	.	.	1g
2E\	.	2G/	.
2F\	1d	2A/	2r
2D\	.	2F/	2a/
=18	=18	=18	=18
2C/	2r	2G/	2cc\
1G	2d\	1B	2b\
.	1B	.	2g/
2E\	.	2G/	2b\
2F\	1d	2A/	2a/
2D\	.	2B\	2f/
=19	=19	=19	=19
0C	0e	2E/	2g/
.	.	2A/	2c/
.	.	2G/	1g
.	.	2E/	.
2r	1d	2r	2.f/
2D\	.	2B\	.
.	.	.	4d/
=20	=20	=20	=20
2AA/	2r	2c\	2e/
1D	1d	2.d\	2d/
.	.	.	2f/
.	.	4c\	.
2E\	2B\	2B\	2g/
2F\	1d	2A/	2a/
2G\	.	[2G/	2b\
=21	=21	=21	=21
1C	1e	2G/]	2.cc\
.	.	2.c\	.
.	.	.	4b\
0D	0d	.	4a/
.	.	4B\	4g/
.	.	4A/	1g
.	.	4G/	.
.	.	1A	.
.	.	.	2f#i/
=22	=22	=22	=22
1GG	2r	1G	[0.gl
.	2d\	.	.
2r	2B\	2r	.
2G\	2d\	1B	.
2G\	1e	.	.
[2E\	.	2B\	.
=23	=23	=23	=23
2E\]	1e	2c\	0.g_
2C/	.	2c\	.
0G	0d	1B	.
.	.	[1Bl	.
=24	=24	=24	=24
0.GGl	0.dl	0.B]	0.g]
!!LO:LB:i:g=z
!LO:TX:rj:i:t=fine	!	!	!
=25||	=25||	=25||	=25||
*>B	*>B	*>B	*>B
!!section: Agnus Dei II
!!!OMD: Agnus Dei II
*M2/1	*M2/1	*M2/1	*M2/1
*met(C|)	*met(C|)	*met(C|)	*met(C|)
1.D	[0d	0A	[0a
2E\	.	.	.
=26	=26	=26	=26
1F	1d]	1A	1a]
1G	1B	[1d	1g
=27	=27	=27	=27
1.D	0d	2d\]	1.f
.	.	4c\	.
.	.	4B\	.
.	.	[1A	.
4C/	.	.	4e/
4BB/	.	.	4d/
=28	=28	=28	=28
0AA	[0e	2A/]	1c
.	.	4G/	.
.	.	4F/	.
.	.	1E	[1cc
=29	=29	=29	=29
2r	1e]	0r	1cc]
1A	.	.	.
.	1d	.	1b
2G\	.	.	.
=30	=30	=30	=30
2F\	0d	2.F/	1.a
2E\	.	.	.
.	.	4G/	.
1D	.	2A/	.
.	.	2B\	4g/
.	.	.	4f/
=31	=31	=31	=31
0C	1.G	2.c\	2.e/
.	.	4d\	4f/
.	.	1e	2g/
.	2E/	.	[2a/
=32	=32	=32	=32
1r	1G	0d	4a/]
.	.	.	4g/
.	.	.	1g
1D	1A	.	.
.	.	.	2f#i/
=33	=33	=33	=33
1.E	0G	1B	1g
.	.	[1e	2r
4D\	.	.	[2g/
4C/	.	.	.
=34	=34	=34	=34
2C/	0r	2e\]	2g/]
2F\	.	2c\	2a/
2E\	.	1c	2g/
[2F\	.	.	[2a/
=35	=35	=35	=35
2F\]	0r	2r	4a/]
.	.	.	4b\
2G\	.	1e	1cc
1A	.	.	.
.	.	2f\	4b\
.	.	.	4a/
=36	=36	=36	=36
[0G	0d	0g	2b\
.	.	.	2g/
.	.	.	[1dd
=37	=37	=37	=37
1G]	1B	1G	2dd\]
.	.	.	4cc\
.	.	.	4b\
1F	1d	1A	1a
=38	=38	=38	=38
2.E\	[0e	1B	2.g/
4F\	.	.	4a/
2G\	.	2B\	2b\
[2A\	.	2A/	[2cc\
=39	=39	=39	=39
2A\]	0e]	1c	2cc\]
4G\	.	.	4b\
4F\	.	.	4a/
2.E\	.	1G	2cc\
.	.	.	[2b\
4F\	.	.	.
=40	=40	=40	=40
2G\	0d	2G/	2b\]
2D\	.	2A/	1a
1G	.	1B	.
.	.	.	2g/
=41	=41	=41	=41
0D	0r	1A	0a
.	.	2r	.
.	.	[2f\	.
=42	=42	=42	=42
2r	1.d	2f\]	0r
2G\	.	4e\	.
.	.	4d\	.
2F\	.	2f\	.
[2G\	2B\	[2e\	.
=43	=43	=43	=43
4G\]	1d	2e\]	0r
4F\	.	.	.
4E\	.	1d	.
4D\	.	.	.
1A	1e	.	.
.	.	2c#i\	.
=44	=44	=44	=44
0D	1d	0d	0r
.	2r	.	.
.	[2d\	.	.
=45	=45	=45	=45
2r	2d\]	0r	0r
2G\	2B\	.	.
2F\	2d\	.	.
[2G\	[2e\	.	.
=46	=46	=46	=46
4G\]	2e\]	0r	0r
4F\	.	.	.
4E\	1d	.	.
4D\	.	.	.
1E	.	.	.
.	2c#i\	.	.
=47	=47	=47	=47
0D	[0d	0f	1r
.	.	.	[1a
=48	=48	=48	=48
1D	0d_	1f	1a]
1D	.	1f	1a
=49	=49	=49	=49
0G	0d]	1g	1b
.	.	1g	1b
=50	=50	=50	=50
1.A	0r	1.e	1.cc
4G\	.	4d\	4b\
4F\	.	4c\	4a/
=51	=51	=51	=51
2G\	0r	4d\	2b\
.	.	4c\	.
2C/	.	4B\	1a
.	.	4A/	.
2D\	.	1B	.
2E\	.	.	2g#i/
=52	=52	=52	=52
2F\	0r	1A	2a/
2D\	.	.	2f/
2E\	.	2G/	2g/
2C/	.	[2A/	2e/
=53	=53	=53	=53
2D\	0r	2A/]	2f/
2E\	.	2.G/	2g/
1C	.	.	2e/
.	.	4A/	.
.	.	4B\	[2g/
.	.	4c\	.
=54	=54	=54	=54
0GG	[0G	2d\	2g/]
.	.	1c	4f/
.	.	.	4e/
.	.	.	1d
.	.	2B\	.
=55	=55	=55	=55
0C	0G]	[0c	1c
.	.	.	2r
.	.	.	[2g/
=56	=56	=56	=56
2r	[0E	0c]	2g/]
1C	.	.	2e/
.	.	.	2g/
2AA/	.	.	[2a/
=57	=57	=57	=57
2.C/	0E]	0r	2a/]
.	.	.	2.g/
4D\	.	.	.
4E\	.	.	.
4F\	.	.	4f/
[2G\	.	.	4e/
.	.	.	4d/
=58	=58	=58	=58
4G\]	0G	1r	2e/
4F\	.	.	.
4E\	.	.	1d
4D\	.	.	.
1E	.	[1G	.
.	.	.	2c/
=59	=59	=59	=59
0D	1.A	2G/]	2d/
.	.	4F#i/	2B/
.	.	4E/	.
.	.	1F#i	1A
.	2G/	.	.
=60	=60	=60	=60
0GG	1G	2.G/	0B
.	.	4A/	.
.	2r	4B\	.
.	.	4c\	.
.	[2G/	[2d\	.
=61	=61	=61	=61
2r	2G/]	2d\]	0r
2C/	2E/	2e\	.
2GG/	2G/	2B\	.
[2C/	[2A/	[2e\	.
=62	=62	=62	=62
4C/]	2A/]	4e\]	0r
4BB/	.	4d\	.
4AA/	1G	4c\	.
4GG/	.	4B\	.
1AA	.	1c	.
.	2F#i/	.	.
=63	=63	=63	=63
0GG	[0G	0B	0r
=64	=64	=64	=64
*M3/1	*	*M3/1	*M3/1
*met(3)	*	*met(3)	*met(3)
!	!LO:N:vis=0	!	!
1.GG	0.G]	1.B	0d
2AA/	.	2c\	.
1BB	.	1d	1d
=65	=65	=65	=65
!	!LO:N:vis=0	!	!
1C	0.r	1G	1e
1AA	.	0A	1c
.	.	.	.
1C	.	.	1e
=66	=66	=66	=66
!	!LO:N:vis=0	!	!
1D	0.r	1A	1f
1BB	.	0B	1d
1D	.	.	1f
=67	=67	=67	=67
*	*M3/1	*	*
*	*met(3)	*	*
1E	1G	1B	0g
1C	1E	0c	.
1E	1G	.	1g
=68	=68	=68	=68
1F	[0.A	1c	0f
0D	.	0F	.
.	.	.	2e/
.	.	.	2d/
=69	=69	=69	=69
0C	1A]	0c	0e
.	0G	.	.
1r	.	1r	1r
=70	=70	=70	=70
1.C	1G	0e	0g
.	1E	.	.
2D\	.	.	.
1E	1G	1e	1g
=71	=71	=71	=71
1F	0A	1c	1.f
1D	.	0d	.
.	.	.	2g/
1F	1A	.	1a
=72	=72	=72	=72
1G	0.G	1d	1b
1E	.	0e	1g
1G	.	.	1b
=73	=73	=73	=73
1A	0.r	1e	1cc
1F	.	0f	1a
1A	.	.	1cc
=74	=74	=74	=74
1B	1d	1f	0dd
1G	1B	1.g	.
1B	1d	.	1b
.	.	2f\	.
=75	=75	=75	=75
1c	[0.e	2e\	1g
.	.	2d\	.
0A	.	0c	0cc
=76	=76	=76	=76
0G	1e]	1r	1.b
.	0d	1g	.
.	.	.	2cc\
1D	.	1f	1dd
=77	=77	=77	=77
1G	[0.d	1g	1g
1D	.	1f	1.a
[1G	.	1g	.
.	.	.	2g/
=78	=78	=78	=78
1G]	0.d]	1G	0g
0D	.	0A	.
.	.	.	1f#i
=79	=79	=79	=79
0.GGl	0.dl	0.Gl	0.gl
!LO:TX:i:Y=40:rj:t=[Agnus Dei I ut supra]	!	!	!
=||	=||	=||	=||
*-	*-	*-	*-
!!!RDF**kern: l=long note in original notation
!!!RDF**kern: i=editorial accidental
!!!ENC: Jesse Rodin; Victoria Chang 2011/04/03
!!!END: 2011/04/03/
!!!EED:	Jesse Rodin
!!!EEV:	2011/11/02/
!!attribution-level@Jos: 6 (very doubtful)
!!!ONB:	Translated from MusicXML and edited on 2011/11/02/ by Craig Sapp
!!muse2ps: T^@{OPR}^u^@{ONM}{. }@{OTL}^C^La Rue/Josquin?\n@{SCT}^i2I100v85,90,85,150c95Q16
